assets/img/contact.svg

<svg width="510" height="618" viewBox="0 0 510 618" fill="none" xmlns="http://www.w3.org/2000/svg">
<path d="M11.9481 60.5183C11.9183 50.1488 11.5159 39.9596 10.4964 29.6486C10.2017 26.6957 10.3044 23.7215 9.96926 20.789C9.80383 19.3129 9.63146 18.6274 9.46608 17.1552C9.23077 15.6485 9.16739 14.734 9.84155 14.6041C11.4992 14.3142 12.7311 14.2966 14.4142 14.1681C17.778 13.9112 30.1388 13.156 33.4366 13.0265C38.7245 12.819 86.8527 9.16838 80.6574 7.24215C79.1292 6.83785 77.5414 6.62855 75.9432 6.62069C71.6105 6.44452 49.233 6.84665 44.8657 6.7777C42.7001 6.74495 35.9712 6.85157 33.7304 6.93452C30.3645 7.04122 17.3024 7.44654 14.7566 7.67216C12.2107 7.89778 5.64313 8.25176 1.28744 8.68013L1.22411 8.68103C1.20151 8.68134 1.22461 8.7166 1.22483 8.73241L1.22656 8.85493L1.30901 9.5693L1.61907 12.012L2.03725 15.7063L2.58 19.8929C3.37627 26.3649 3.44417 32.4717 3.96054 38.9674C4.6391 47.3517 4.60968 44.6187 5.08959 53.0191C5.19389 60.4253 5.72768 67.8627 6.25242 75.253C7.98833 99.7006 12.0121 82.7285 11.9481 60.5183Z" fill="#6E3CBE"/>
<path d="M456.685 10.9347C467.054 11.0509 477.248 10.792 487.572 9.91777C490.529 9.66468 493.501 9.80924 496.438 9.51547C497.917 9.37084 498.604 9.20814 500.079 9.06351C501.589 8.84944 502.504 8.79894 502.624 9.47486C502.891 11.1364 502.891 12.3685 502.996 14.0532C503.206 17.4203 503.787 29.7905 503.87 33.0898C504.003 38.3801 506.975 86.5549 508.988 80.3874C509.414 78.865 509.646 77.2803 509.676 75.6824C509.913 71.3526 509.826 48.9717 509.957 44.6057C510.02 42.4408 510.008 35.7111 509.957 33.4694C509.898 30.1023 509.676 17.0358 509.487 14.487C509.297 11.9383 509.035 5.36631 508.668 1.00502L508.668 0.941684C508.668 0.919086 508.633 0.941684 508.617 0.941684L508.494 0.941684L507.779 1.01407L505.332 1.2897L501.632 1.65582L497.438 2.13955C490.956 2.84461 484.849 2.82652 478.346 3.25136C469.953 3.81179 472.687 3.82086 464.28 4.18242C456.873 4.18242 449.429 4.61143 442.032 5.03205C417.563 6.42352 434.476 10.6858 456.685 10.9347Z" fill="#6E3CBE"/>
<path d="M499.322 558.609C499.13 568.976 499.315 579.172 500.114 589.502C500.345 592.461 500.179 595.432 500.451 598.371C500.585 599.851 500.743 600.539 500.876 602.015C501.079 603.526 501.123 604.442 500.446 604.557C498.783 604.812 497.551 604.803 495.866 604.895C492.497 605.08 480.123 605.571 476.823 605.63C471.532 605.724 423.337 608.345 429.489 610.403C431.009 610.84 432.591 611.083 434.189 611.125C438.517 611.394 460.898 611.471 465.263 611.633C467.427 611.712 474.157 611.749 476.399 611.714C479.766 611.68 492.834 611.554 495.384 611.383C497.934 611.211 504.508 610.998 508.872 610.663L508.935 610.663C508.958 610.664 508.935 610.628 508.936 610.612L508.937 610.489L508.869 609.774L508.612 607.325L508.273 603.622L507.819 599.425C507.162 592.937 507.224 586.831 506.847 580.325C506.348 571.928 506.319 574.662 506.019 566.253C506.073 558.846 505.698 551.399 505.332 543.999C504.119 519.52 499.733 536.402 499.322 558.609Z" fill="#6E3CBE"/>
<path d="M54.2627 607.356C43.8948 607.175 33.6994 607.371 23.3699 608.181C20.4117 608.416 17.4402 608.253 14.5015 608.528C13.0222 608.663 12.3335 608.822 10.8582 608.957C9.34699 609.162 8.43141 609.207 8.31522 608.53C8.05904 606.867 8.06648 605.635 7.97214 603.95C7.78358 600.581 7.27944 588.208 7.21695 584.908C7.11675 579.617 4.44388 531.425 2.39229 537.579C1.95705 539.099 1.71556 540.682 1.67527 542.28C1.41118 546.608 1.35898 568.989 1.2014 573.354C1.12469 575.519 1.0947 582.249 1.13215 584.491C1.1705 587.858 1.31059 600.925 1.48448 603.475C1.65838 606.025 1.87897 612.599 2.21884 616.962L2.21845 617.026C2.21831 617.048 2.25402 617.026 2.26983 617.026L2.39237 617.027L3.10826 616.959L5.5567 616.698L9.25874 616.355L13.4556 615.898C19.9424 615.233 26.0493 615.289 32.5541 614.905C40.9505 614.396 38.2174 614.37 46.6258 614.061C54.0327 614.107 61.4794 613.724 68.8788 613.35C93.3565 612.11 76.4697 607.743 54.2627 607.356Z" fill="#6E3CBE"/>
</svg>

<svg width="510" height="618" fill="none" xmlns="http://www.w3.org/2000/svg"><path d="M11.948 60.518c-.03-10.37-.432-20.558-1.452-30.87-.294-2.952-.192-5.927-.527-8.859-.165-1.476-.338-2.162-.503-3.634-.235-1.507-.299-2.421.376-2.55 1.657-.29 2.89-.308 4.572-.437 3.364-.257 15.725-1.012 19.023-1.141 5.288-.208 53.416-3.859 47.22-5.785a18.814 18.814 0 0 0-4.714-.621c-4.332-.176-26.71.226-31.077.157-2.166-.033-8.895.074-11.136.157-3.365.106-16.428.512-18.973.737-2.546.226-9.114.58-13.47 1.008l-.063.001c-.022 0 0 .036 0 .051l.003.123.082.714.31 2.443.418 3.694.543 4.187c.796 6.472.864 12.579 1.38 19.074.68 8.385.65 5.652 1.13 14.052.104 7.406.638 14.844 1.162 22.234 1.736 24.448 5.76 7.475 5.696-14.735Zm444.737-49.583c10.369.116 20.563-.143 30.887-1.017 2.957-.253 5.929-.109 8.866-.403 1.479-.144 2.166-.307 3.641-.451 1.51-.215 2.425-.265 2.545.41.267 1.662.267 2.894.372 4.58.21 3.366.791 15.737.874 19.036.133 5.29 3.105 53.465 5.118 47.297.426-1.522.658-3.107.688-4.705.237-4.33.15-26.71.281-31.076.063-2.165.051-8.895 0-11.137-.059-3.367-.281-16.433-.47-18.982-.19-2.549-.452-9.12-.819-13.482V.942c0-.023-.035 0-.051 0h-.123l-.715.072-2.447.276-3.7.366-4.194.484c-6.482.705-12.589.687-19.092 1.111-8.393.56-5.659.57-14.066.931-7.407 0-14.851.43-22.248.85-24.469 1.392-7.556 5.654 14.653 5.903Zm42.637 547.674c-.192 10.367-.007 20.563.792 30.893.231 2.959.065 5.93.337 8.869.134 1.48.292 2.168.425 3.644.203 1.511.247 2.427-.43 2.542-1.663.255-2.895.246-4.58.338-3.369.185-15.743.676-19.043.735-5.291.094-53.486 2.715-47.334 4.773 1.52.437 3.102.68 4.7.722 4.328.269 26.709.346 31.074.508 2.164.079 8.894.116 11.136.081 3.367-.034 16.435-.16 18.985-.331 2.55-.172 9.124-.385 13.488-.72h.063c.023.001 0-.035.001-.051l.001-.123-.068-.715-.257-2.449-.339-3.703-.454-4.197c-.657-6.488-.595-12.594-.972-19.1-.499-8.397-.528-5.663-.828-14.072.054-7.407-.321-14.854-.687-22.254-1.213-24.479-5.599-7.597-6.01 14.61ZM54.263 607.356c-10.368-.181-20.564.015-30.893.825-2.958.235-5.93.072-8.869.347-1.479.135-2.167.294-3.643.429-1.511.205-2.427.25-2.543-.427-.256-1.663-.249-2.895-.343-4.58-.188-3.369-.693-15.742-.755-19.042-.1-5.291-2.773-53.483-4.825-47.329a18.817 18.817 0 0 0-.717 4.701c-.264 4.328-.316 26.709-.474 31.074-.076 2.165-.106 8.895-.069 11.137.039 3.367.179 16.434.352 18.984.174 2.55.395 9.124.735 13.487v.064c0 .022.035 0 .05 0l.123.001.716-.068 2.449-.261 3.702-.343 4.197-.457c6.486-.665 12.593-.609 19.098-.993 8.396-.509 5.663-.535 14.072-.844 7.407.046 14.853-.337 22.253-.711 24.477-1.24 7.59-5.607-14.616-5.994Z" fill="#6E3CBE"/></svg>
